svg/hiv_ind_negative.svg

<?xml version="1.0" encoding="UTF-8" standalone="no"?>
<!-- Created with Inkscape (http://www.inkscape.org/) -->
<svg id="svg8" xmlns:rdf="http://www.w3.org/1999/02/22-rdf-syntax-ns#" xmlns="http://www.w3.org/2000/svg" xmlns:osb="http://www.openswatchbook.org/uri/2009/osb" height="48" width="48" version="1.1" xmlns:cc="http://creativecommons.org/ns#" viewBox="0 0 12.7 12.7" xmlns:dc="http://purl.org/dc/elements/1.1/">
 <title id="title4753">UIO-icon</title>
 <metadata id="metadata5">
  <rdf:RDF>
   <cc:Work rdf:about="">
    <dc:format>image/svg+xml</dc:format>
    <dc:type rdf:resource="http://purl.org/dc/dcmitype/StillImage"/>
    <dc:title>UIO-icon</dc:title>
    <dc:creator>
     <cc:Agent>
      <dc:title>Joaquín Urbano</dc:title>
     </cc:Agent>
    </dc:creator>
    <dc:rights>
     <cc:Agent>
      <dc:title>GPL</dc:title>
     </cc:Agent>
    </dc:rights>
   </cc:Work>
  </rdf:RDF>
 </metadata>
 <g id="layer1" transform="translate(0,-284.3)">
  <path id="rect13088" d="m0 0v48h48v-48zm23.393 3.459h0.001953c0.009913-0.000054047 0.017883 0.000002646 0.027344 0 7.0398 0.019502 8.1335 4.1161 8.0742 12.484-0.00878 0.54343-0.022609 1.8203-1.1406 2.0684v-3.584c0.013839-1.5223-0.96605-3.4019-2.4316-3.8008-2.791-0.463-3.446-0.016-4.098-3.5303-0.3 0.5174-2.946 3.4733-4.275 3.9393-1.008 0.253-2.116-0.084-3.051-0.818l-0.070312 7.8965c-1.178 0.019-0.968-1.368-1.071-2.171-0.04-9.3735 1.147-12.476 8.034-12.484zm0.14062 5.1094c0.47587 4.7418 5.5877-0.097489 6.3125 6.5234l0.007813 2.9883c0.005 1.885-0.32517 4.0321-1.6602 4.873-1.89 1.19-3.1723 2.1653-4.8359 2.2129-1.1393 0.0037-2.7933-1.2097-4.3652-2.1934-1.4135-0.88419-2.0469-3.0407-2.0469-4.916-0.033116-2.2761-0.001796-4.4788 0.13672-6.7168 2.5587 1.3024 4.1912-0.50161 6.4512-2.7715zm-3.1016 5.8574c-0.43895 0.00010998-0.79482 0.35594-0.79492 0.79492 0.00010005 0.43888 0.35595 0.79481 0.79492 0.79492 0.43899-0.00010961 0.79483-0.35598 0.79492-0.79492-0.00009003-0.43891-0.35595-0.79481-0.79492-0.79492zm5.9688 0c-0.43895 0.00010998-0.79482 0.35594-0.79492 0.79492 0.00010005 0.43888 0.35595 0.79481 0.79492 0.79492 0.43895-0.00010961 0.79482-0.35598 0.79492-0.79492-0.00010001-0.43891-0.35595-0.79481-0.79492-0.79492zm-2.9844 3.668c-0.39815 0-0.72 0.066422-0.7168 0.14844 0.00203 0.080874 0.32239 0.14652 0.7168 0.14648 0.39441 0.00038173 0.7148-0.065602 0.7168-0.14648 0.004021-0.077858-0.28788-0.14466-0.66602-0.14844-0.016777-0.00011339-0.033774-0.00011339-0.050781 0zm0.22852 2.8945c-0.064879-0.00065424-0.13047 0.004587-0.19531 0.003906-1.4516 0.024038-2.574 0.083598-2.5605 0.13672 0.019272 0.055038 1.2494 0.081523 2.7578 0.060547 1.4968-0.020939 2.7051-0.081991 2.7402-0.13672-0.008957-0.055245-1.2257-0.084791-2.7422-0.064453zm2.7422 0.064453c0.00006841 0.00038966 0.011768 0.001541 0.011719 0.001953v-0.001953c-0.00012753 0.00040289-0.011277-0.00047698-0.011719 0zm-14.632 4.901c0.78498 0.006735 1.5508 0.10155 2.3027 0.26367-0.27866 0.85879-0.6068 1.7602-1.2773 2.7695-0.61899-0.29013-1.6388-0.16884-2.2578 0.025391-0.49-0.875-0.8694-1.471-1.1822-2.793 0.8262-0.189 1.6292-0.274 2.4142-0.266zm-2.6914 0.53906 0.070312 0.37695c0.099691 0.54922 0.55661 1.4647 1.3828 2.7578 0.39972 0.6256 0.72852 1.1616 0.72852 1.1934 0 0.080266-1.6424 2.4258-1.6973 2.4238-0.024858-0.000949-0.33764-0.44986-0.69531-0.99805-0.88953-1.3633-0.86404-1.2989-0.81641-2.0938 0.032216-0.53773 0.14719-1.0116 0.5332-2.1738zm5.293 0 0.5 1.5293c0.50056 1.5297 0.62881 2.2219 0.51758 2.8145-2.5414 5.0508-5.6195 7.9231-8.6328 12.975-0.68826-0.75605-1.3505-1.7078-1.9688-2.5781 3.0496-4.3146 5.3135-7.4786 8.1699-11.654 0.7366-1.1724 1.2441-2.1889 1.3379-2.6816zm26.904 3.8281c0.62224 0.00000113 1.1058 0.15301 1.4492 0.45508 0.34341 0.29913 0.51562 0.72112 0.51562 1.2695 0 0.24928-0.056436 0.4861-0.16797 0.70898-0.11153 0.21995-0.30515 0.46652-0.58398 0.73633l-0.358 0.338c-0.22307 0.21409-0.35053 0.46455-0.38281 0.75195l-0.019531 0.26758h-1.125c0-0.41057 0.050598-0.73706 0.15039-0.98047 0.099793-0.24341 0.28076-0.48218 0.54492-0.7168 0.26709-0.23755 0.44515-0.42954 0.5332-0.57617 0.088054-0.14957 0.13086-0.30647 0.13086-0.4707 0-0.49562-0.22962-0.74414-0.6875-0.74414-0.2172 0-0.38941 0.068222-0.52148 0.20312-0.12914 0.13197-0.19726 0.31421-0.20312 0.54883h-1.2773c0.00587-0.56014 0.18587-0.99772 0.54102-1.3145 0.35808-0.31673 0.84457-0.47656 1.4609-0.47656zm-23.271 0.089844h1.3203v2.5938h2.5762v-2.5938h1.3203v6.4043h-1.3203v-2.744h-2.5762v2.7441h-1.3203zm6.459 0h1.3203v6.4043h-1.3203zm2 0h1.4648l1.4434 4.8164 1.4531-4.8164h1.469l-2.2324 6.4043h-1.377zm10.5 1.5586c0.21426 0 0.38453 0.061396 0.51367 0.1875 0.13208 0.1261 0.19922 0.28788 0.19922 0.48438 0 0.19649-0.06811 0.35632-0.20312 0.48242s-0.30431 0.19141-0.50977 0.19141-0.37866-0.065302-0.51367-0.19141c-0.13502-0.12611-0.19922-0.28594-0.19922-0.48242 0-0.19649 0.062263-0.35827 0.19141-0.48438 0.13208-0.1261 0.30722-0.1875 0.52148-0.1875zm-0.575 2.017h1.127c0 0.39005-0.043776 0.70483-0.13477 0.94531-0.090988 0.24048-0.25543 0.46853-0.49023 0.68555-0.23187 0.21702-0.38949 0.3788-0.47461 0.48438-0.082183 0.10558-0.14543 0.21376-0.18945 0.32227-0.041091 0.10851-0.060547 0.22643-0.060547 0.35547 0 0.46043 0.22573 0.69141 0.67773 0.69141 0.226 0 0.40503-0.065296 0.53711-0.19727 0.13502-0.13197 0.20507-0.31714 0.21094-0.55469h1.2715c-0.005871 0.56307-0.18587 1.0007-0.54102 1.3145-0.35515 0.31673-0.84066 0.47461-1.457 0.47461-0.62518 0-1.1107-0.14813-1.457-0.44727-0.347-0.296-0.52-0.722-0.52-1.273 0-0.4663 0.22476-0.92239 0.67383-1.3711l0.42578-0.4082c0.14675-0.13197 0.24892-0.27036 0.30469-0.41406 0.058702-0.1437 0.089833-0.34642 0.095703-0.60742zm-22.484 0.53125c1.5852 2.2416 3.1708 4.4829 4.7559 6.7246-0.71737 1.0001-1.2151 1.7187-1.916 2.625-1.3321-1.8611-2.4121-3.5512-3.7168-5.4395-0.46187-0.67757-0.82484-1.2873-0.80469-1.3574 0.020078-0.07004 0.40692-0.67314 0.85938-1.3398zm27.283 1.0039c0.20839 0 0.37964 0.064322 0.51172 0.19336 0.13501 0.12611 0.20117 0.28788 0.20117 0.48438 0 0.19356-0.063233 0.35436-0.19531 0.48047-0.12914 0.1261-0.30332 0.1875-0.51758 0.1875s-0.3855-0.061396-0.51758-0.1875c-0.12914-0.1261-0.19531-0.28691-0.19531-0.48047 0-0.19649 0.067139-0.35827 0.19922-0.48438 0.13502-0.12904 0.30528-0.19336 0.51367-0.19336z" fill-rule="evenodd" transform="matrix(.26458 0 0 .26458 0 284.3)" fill="#333"/>
 </g>
</svg>

<svg width="48" height="48" viewBox="0 0 48 48" fill="none" xmlns="http://www.w3.org/2000/svg">
<path fill-rule="evenodd" clip-rule="evenodd" d="M0 0V47.9994H47.9994V0H0ZM23.3927 3.45896H23.3947C23.4046 3.4589 23.4125 3.45896 23.422 3.45896C30.4617 3.47846 31.5554 7.57501 31.4961 15.9428C31.4873 16.4862 31.4735 17.7631 30.3555 18.0112V14.4272C30.3694 12.9049 29.3895 11.0254 27.9239 10.6265C25.133 10.1635 24.478 10.6105 23.826 7.09621C23.526 7.6136 20.88 10.5695 19.5511 11.0355C18.5431 11.2885 17.4351 10.9515 16.5001 10.2175L16.4298 18.1139C15.2518 18.1329 15.4618 16.7459 15.3588 15.9429C15.3188 6.56952 16.5058 3.46706 23.3927 3.45906V3.45896ZM23.5333 8.56829C24.0092 13.31 29.121 8.4708 29.8457 15.0916L29.8536 18.0799C29.8586 19.9648 29.5284 22.1119 28.1934 22.9528C26.3034 24.1428 25.0211 25.1181 23.3575 25.1657C22.2183 25.1694 20.5643 23.956 18.9924 22.9723C17.5789 22.0881 16.9455 19.9317 16.9455 18.0564C16.9124 15.7803 16.9437 13.5776 17.0822 11.3397C19.6409 12.642 21.2734 10.8381 23.5334 8.56819L23.5333 8.56829ZM20.4318 14.4256C19.9928 14.4257 19.637 14.7816 19.6369 15.2205C19.637 15.6594 19.9928 16.0153 20.4318 16.0154C20.8707 16.0153 21.2266 15.6595 21.2267 15.2205C21.2266 14.7816 20.8707 14.4257 20.4318 14.4256ZM26.4005 14.4256C25.9615 14.4257 25.6057 14.7816 25.6056 15.2205C25.6057 15.6594 25.9615 16.0153 26.4005 16.0154C26.8394 16.0153 27.1953 15.6595 27.1954 15.2205C27.1953 14.7816 26.8395 14.4257 26.4005 14.4256ZM23.4161 18.0936C23.018 18.0936 22.6961 18.16 22.6993 18.242C22.7014 18.3229 23.0217 18.3885 23.4161 18.3885C23.8105 18.3889 24.1309 18.3229 24.1329 18.242C24.1369 18.1642 23.845 18.0974 23.4669 18.0936C23.4501 18.0935 23.4331 18.0935 23.4161 18.0936ZM23.6446 20.988C23.5798 20.9874 23.5142 20.9926 23.4493 20.9919C21.9978 21.016 20.8754 21.0755 20.8889 21.1287C20.9081 21.1837 22.1383 21.2102 23.6466 21.1892C25.1434 21.1683 26.3517 21.1072 26.3868 21.0525C26.3778 20.9972 25.1611 20.9677 23.6446 20.988ZM26.3868 21.0525C26.3869 21.0529 26.3986 21.054 26.3985 21.0544V21.0525C26.3984 21.0529 26.3873 21.052 26.3868 21.0525ZM11.755 25.9534C12.54 25.9602 13.3058 26.055 14.0577 26.2171C13.779 27.0759 13.4509 27.9773 12.7804 28.9866C12.1614 28.6964 11.1416 28.8177 10.5226 29.0119C10.0326 28.137 9.65322 27.541 9.34042 26.219C10.1666 26.03 10.9696 25.945 11.7546 25.953L11.755 25.9534ZM9.06363 26.4925L9.13394 26.8694C9.23363 27.4186 9.69054 28.3341 10.5167 29.6272C10.9164 30.2528 11.2452 30.7888 11.2452 30.8206C11.2452 30.9008 9.60285 33.2463 9.54795 33.2443C9.52309 33.2434 9.21032 32.7945 8.85265 32.2463C7.96313 30.883 7.98862 30.9474 8.03625 30.1525C8.06847 29.6148 8.18344 29.1409 8.56944 27.9788L9.06363 26.4925ZM14.3566 26.4925L14.8566 28.0218C15.3571 29.5514 15.4854 30.2436 15.3741 30.8362C12.8328 35.887 9.7547 38.7592 6.74144 43.8111C6.05318 43.055 5.39095 42.1033 4.77266 41.233C7.82222 36.9185 10.0861 33.7545 12.9425 29.5791C13.679 28.4068 14.1865 27.3903 14.2803 26.8976L14.3566 26.4925ZM41.2602 30.3205C41.8825 30.3205 42.366 30.4735 42.7094 30.7756C43.0528 31.0747 43.225 31.4967 43.225 32.0451C43.225 32.2944 43.1686 32.5312 43.0571 32.7541C42.9455 32.974 42.7519 33.2206 42.4731 33.4904L42.1151 33.8284C41.892 34.0425 41.7646 34.2929 41.7323 34.5803L41.7127 34.8479H40.5878C40.5878 34.4373 40.6384 34.1108 40.7381 33.8674C40.8379 33.624 41.0189 33.3853 41.2831 33.1506C41.5502 32.9131 41.7282 32.7211 41.8163 32.5745C41.9043 32.4249 41.9471 32.268 41.9471 32.1038C41.9471 31.6082 41.7175 31.3597 41.2596 31.3597C41.0424 31.3597 40.8702 31.4279 40.7381 31.5628C40.609 31.6947 40.5409 31.877 40.535 32.1116H39.2577C39.2636 31.5515 39.4436 31.1139 39.7988 30.7971C40.1568 30.4804 40.6433 30.3206 41.2596 30.3206L41.2602 30.3205ZM17.9895 30.4104H19.3098V33.0041H21.886V30.4104H23.2062V36.8146H21.886V34.0706H19.3098V36.8147H17.9895V30.4104ZM24.4484 30.4104H25.7687V36.8146H24.4484V30.4104ZM26.4484 30.4104H27.9132L29.3566 35.2267L30.8097 30.4104H32.2786L30.0463 36.8146H28.6693L26.4484 30.4104ZM36.9483 31.969C37.1625 31.969 37.3328 32.0304 37.4619 32.1565C37.594 32.2826 37.6612 32.4443 37.6612 32.6408C37.6612 32.8373 37.5931 32.9971 37.458 33.1232C37.323 33.2493 37.1537 33.3147 36.9483 33.3147C36.7428 33.3147 36.5696 33.2493 36.4346 33.1232C36.2996 32.9971 36.2354 32.8373 36.2354 32.6408C36.2354 32.4443 36.2977 32.2826 36.4268 32.1565C36.5589 32.0304 36.734 31.969 36.9483 31.969ZM36.3733 33.9859H37.5003C37.5003 34.376 37.4565 34.6908 37.3655 34.9312C37.2745 35.1717 37.1101 35.3998 36.8753 35.6168C36.6434 35.8338 36.4858 35.9956 36.4007 36.1011C36.3185 36.2067 36.2552 36.3149 36.2112 36.4234C36.1701 36.5319 36.1507 36.6498 36.1507 36.7789C36.1507 37.2393 36.3764 37.4703 36.8284 37.4703C37.0544 37.4703 37.2334 37.405 37.3655 37.273C37.5005 37.141 37.5706 36.9559 37.5764 36.7183H38.8479C38.8421 37.2814 38.6621 37.719 38.3069 38.0328C37.9518 38.3495 37.4663 38.5074 36.8499 38.5074C36.2248 38.5074 35.7392 38.3593 35.3929 38.0602C35.046 37.7642 34.873 37.3382 34.873 36.7872C34.873 36.3209 35.0977 35.8648 35.5468 35.4161L35.9726 35.0079C36.1193 34.8759 36.2215 34.7375 36.2772 34.5938C36.3359 34.4501 36.3671 34.2474 36.3729 33.9864L36.3733 33.9859ZM13.8896 34.5172C15.4747 36.7587 17.0603 39 18.6454 41.2417C17.928 42.2418 17.4303 42.9604 16.7294 43.8667C15.3973 42.0056 14.3174 40.3155 13.0127 38.4272C12.5508 37.7497 12.1878 37.1399 12.208 37.0698C12.2281 36.9998 12.6149 36.3967 13.0674 35.7301L13.8896 34.5172ZM41.1722 35.5211C41.3806 35.5211 41.5519 35.5854 41.6839 35.7144C41.8189 35.8405 41.8851 36.0023 41.8851 36.1988C41.8851 36.3923 41.8219 36.5532 41.6898 36.6793C41.5607 36.8054 41.3865 36.8668 41.1722 36.8668C40.958 36.8668 40.7867 36.8054 40.6547 36.6793C40.5255 36.5532 40.4593 36.3923 40.4593 36.1988C40.4593 36.0023 40.5265 35.8405 40.6586 35.7144C40.7936 35.5854 40.9638 35.5211 41.1722 35.5211Z" fill="#333333"/>
</svg>
